X:1
T:Hallelujah! Christ Is Risen (Hall)
T:Joseph W. Lerman
T:Hallelujah! Christ Is Risen (Hall)
T:Public Domain
T:Public Domain
T:Public Domain
C:Joseph W. Lerman
Z:Public Domain
%%score ( 1 2 ) ( 3 4 )
L:1/8
M:4/4
K:Eb
V:1 treble 
V:2 treble 
V:3 bass 
V:4 bass 
V:1
 [EG]2 [EG]2 [DA]2 [DA]2 | (Be)(dc) [DB]2 [DA]2 | [EG]2 [EG]2 [=EG]2 [EG]2 | (ABc)[FA] (E2 D2) | %4
w: 1.~Day of won- der,|day * of * glad- ness,|ev- er glo- rious|light! * * Gone is *|
w: 2.~In the tri- umph|of * this * ho- ur,|lant shall swell the|song; * * Un- to *|
w: 3.~Ev- ery peo- ple,|ev- * ery * na- tion,|hear the glad- some|sound; * * Joy- ous *|
 [EG]2 [EG]2 [DA]2 [DA]2 | (Be)(dc) [DB]2 [DA]2 | [EG]2 [^F=A]2 [GB]2 (dc) | [FB]2 [E=A]2 [DB]4 | %8
w: gone is sad- ness,|End- * ed * is the|night! List- en to *|an- gel’s sto-|
w: hon- or, pow- er,|Bless- * ing, * vic- to-|long. Scat- tered are *|clouds of er-|
w: of sal- va- tion,|Borne * to * earth’s re-|bound. Then shall rise *|tones ex- cell-|
"^Girls" [df]3 [ce] ([Bd][Ac])([GB][FA]) | ([EG][FA])([GB][Ac]) [GB]2 [EG]2 | %10
w: ry— Cast a- * way *|all * dark * and dread;|
w: ror, Sin and * hell *|are * cap- * tive led;|
w: ing, Praise for * grace *|so * free- * ly shed;|
 ([FA][Ac])([GB][FA]) [EG]2 [FA]2 | [GB]2 [Ge]2 (F2 A2) |"^All" [Ge]3 B G2 E2 | %13
w: Give * to * God, the|Fa- ther, glo- *|“Christ is ris- en|
w: E’en * the * grave is|free from ter- *|“Christ is ris- en|
w: And * the * East- er|hymn be swell- *|“Christ is ris- en|
 [Ec]3 [=EB] [GB]2 [FA]2 | C2 F2 G2 A2 | c2 [=Ae]2 (B2 _A2) ||"^Refrain" (ede)[Gc] [Ad]2 [Ad]2 | %17
w: ||||
w: Hal- le- lu- jah!|hal- le- lu- jah!|as He said; *|lu- * * jah! hal- le-|
w: ||||
 (d^cd)[AB] [G=c]2 [Gc]2 | (c=Bc)[_EG] (A_B) [Fc]2 | [Fd]2 [Dc]2 (E2 A2) | (ede)[Gc] [Ad]2 [Ad]2 | %21
w: ||||
w: jah! * * Christ is ris-|from * * the dead! * *|||
w: ||||
 (d^cd)[AB] [G=c]2 [Gc]2 | (c=Bc)[_EG] (A_B) [Fc]2 | [Fd]2 [AB]2 [Ge]4 |] %24
w: |||
w: |||
w: |||
V:2
 x8 | E2 E2 x4 | x8 | F3 F4 x | x8 | E2 E2 x4 | x6 G2 | x8 | x8 | x8 | x8 | x4 d4 | x3 B G2 E2 | %13
w: |Hail thy||sor- row,||gloom- y|the|||||ry!|from the dead!”|
w: |Ju- bi-||Je- sus,||ry be-|the|||||ror,|from the dead!”|
w: |Soon shall||tid- ings||mot- est|in|||||ing,|from the dead!”|
 x8 | C2 F2 G2 A2 | c2 d4 x2 || G3 x5 | A3 x5 | =E3 F2 x3 | x4 B4 | G3 x5 | A3 x5 | =E3 F2 x3 | %23
w: ||||||||||
w: |Christ is ris- en,|Hal- le-|lu-|en||||||
w: ||||||||||
 x8 |] %24
w: |
w: |
w: |
V:3
 [E,B,]2 [E,B,]2 [F,B,]2 [F,B,]2 | [G,B,]2 [_G,=A,]2 [F,_A,]2 [B,,B,]2 | %2
 [E,B,]2 [E,B,]2 [C,C]2 [C,C]2 | (F,G,A,)[F,C] (B,2 B,,2) | [E,B,]2 [E,B,]2 [F,B,]2 [F,B,]2 | %5
 [G,B,]2 [_G,=A,]2 [F,_A,]2 [B,,B,]2 | [E,B,]2 [D,D]2 [G,D]2 [E,E]2 | [F,D]2 [F,C]2 [B,,B,]4 | %8
 B,,2 B,2 B,,2 B,2 | E,2 B,2 E,2 B,2 | B,,2 B,2 E,2 B,2 | G,2 E,2 (B,,2 B,2) | [E,B,]3 B, G,2 E,2 | %13
 A,3 [G,C] [F,C]2 [F,C]2 | C,2 F,2 G,2 A,2 | C2 [F,F]2 (F2 B,2) || [E,B,]3 [E,B,] [F,B,]2 [F,B,]2 | %17
 [B,,B,]3 [B,,B,] [E,B,]2 [E,B,]2 | [C,C]3 [C,C] (F,G,) [A,C]2 | B,2 [A,B,]2 (G,2 F,2) | %20
 [E,B,]3 [E,B,] [F,B,]2 [F,B,]2 | [B,,B,]3 [B,,B,] [E,B,]2 [E,B,]2 | [C,C]3 [C,C] (F,G,) [A,C]2 | %23
 B,2 [B,,B,]2 [E,B,]4 |] %24
V:4
 x8 | x8 | x8 | C2 x B,4 x | x8 | x8 | x8 | x8 | x8 | x8 | x8 | x8 | x3 B, G,2 E,2 | A,3 x5 | %14
 C,2 F,2 G,2 A,2 | C2 B,4 x2 || x8 | x8 | x4 C2 x2 | B,2 B,4 x2 | x8 | x8 | x4 C2 x2 | B,2 x6 |] %24

